X: 41645
T: Up The Walls Of The World
R: reel
M: 4/4
K: Gmajor
gfed eBB2|cBBe EGGB|gfed eBcB|AGFG Dff2|
gfed eBB2|cBBe EGGB|DGBd gedB|AGFG Dff2||
gBeB dBeB|dBAF Dff2|gBeB dBeB|DGBd e2e2|
gBeB dBeB|a3b agef|g2ga gedB|AGFG Dff2||

